X: 178
%
T: The Fiddich-side Ladies
C:Marshall
O:Scotland
B:Keith Norman MacDonald : "The Skye collection of the best reels & strathspeys extant" : 1887
Z:Ralph Palmer
R:Strathspey
M:C
L:1/8
K:A
c/2d/2 | e<ATe>c eA-Ac/2d/2 | e<ATe>c d=G-Gc/2d/2 | eAec eAec | B=gdg B=GG :|
B | Aa g/2a/2b (a>c)Te>c | Aa g/2a/2b (=g>d)dB | Aa g/2a/2b | (a>f)=g(e | f)>de=c d=GGB |
Aa g/2a/2b (a>c)Te>c | Aa g/2a/2b (=g>d)dB | Aa g/2a/2b (a>f)=g(e | f)>de=c d=GG |]


